Dominus_Dark_Funeral/scalable/apps/system-software-install.svg

<?xml version="1.0" encoding="UTF-8" standalone="no"?>
<svg
   xmlns:dc="http://purl.org/dc/elements/1.1/"
   xmlns:cc="http://creativecommons.org/ns#"
   xmlns:rdf="http://www.w3.org/1999/02/22-rdf-syntax-ns#"
   xmlns:svg="http://www.w3.org/2000/svg"
   xmlns="http://www.w3.org/2000/svg"
   xmlns:xlink="http://www.w3.org/1999/xlink"
   xmlns:sodipodi="http://sodipodi.sourceforge.net/DTD/sodipodi-0.dtd"
   xmlns:inkscape="http://www.inkscape.org/namespaces/inkscape"
   width="48"
   height="48"
   viewBox="0 0 12.7 12.7"
   version="1.1"
   id="svg62"
   sodipodi:docname="system-software-install.svg"
   inkscape:version="0.92.4 (5da689c313, 2019-01-14)">
  <sodipodi:namedview
     pagecolor="#ffffff"
     bordercolor="#666666"
     borderopacity="1"
     objecttolerance="10"
     gridtolerance="10"
     guidetolerance="10"
     inkscape:pageopacity="0"
     inkscape:pageshadow="2"
     inkscape:window-width="1112"
     inkscape:window-height="480"
     id="namedview64"
     showgrid="false"
     inkscape:zoom="4.9166667"
     inkscape:cx="2.1355932"
     inkscape:cy="24"
     inkscape:window-x="0"
     inkscape:window-y="25"
     inkscape:window-maximized="0"
     inkscape:current-layer="svg62" />
  <metadata
     id="metadata2">
    <rdf:RDF>
      <cc:Work>
        <dc:format>image/svg+xml</dc:format>
        <dc:type
           rdf:resource="http://purl.org/dc/dcmitype/StillImage" />
        <dc:title></dc:title>
      </cc:Work>
    </rdf:RDF>
  </metadata>
  <defs
     id="defs48">
    <linearGradient
       id="f"
       x1="44.99"
       x2="3.01"
       y1="17.5"
       y2="17.5"
       gradientTransform="matrix(0.16377,0,0,0.16377,2.4,1.674)"
       gradientUnits="userSpaceOnUse"
       spreadMethod="reflect">
      <stop
         stop-color="#fff"
         stop-opacity="0"
         offset="0"
         id="stop4" />
      <stop
         stop-color="#fff"
         offset=".24"
         id="stop6" />
      <stop
         stop-color="#fff"
         offset=".77"
         id="stop8" />
      <stop
         stop-color="#fff"
         stop-opacity="0"
         offset="1"
         id="stop10" />
    </linearGradient>
    <linearGradient
       id="c"
       x1="24.82"
       x2="25"
       y1="15.38"
       y2="37.28"
       gradientTransform="matrix(1.44914 0 0 2.1568 -70.795 -34.997)"
       gradientUnits="userSpaceOnUse">
      <stop
         stop-color="#eacfb0"
         offset="0"
         id="stop13" />
      <stop
         stop-color="#b09b77"
         offset=".373"
         id="stop15" />
      <stop
         stop-color="#e3cfa5"
         offset=".422"
         id="stop17" />
      <stop
         stop-color="#997b53"
         offset="1"
         id="stop19" />
    </linearGradient>
    <radialGradient
       id="a"
       cx="6.35"
       cy="290.65"
       r="5.36"
       gradientTransform="matrix(1 0 0 1.1704 0 -49.52)"
       gradientUnits="userSpaceOnUse">
      <stop
         stop-color="#374837"
         offset="0"
         id="stop22" />
      <stop
         stop-color="#dbe3de"
         offset="1"
         id="stop24" />
    </radialGradient>
    <linearGradient
       id="g"
       x1="7.09"
       x2="9.57"
       y1="289.91"
       y2="289.91"
       gradientUnits="userSpaceOnUse"
       gradientTransform="matrix(1.83718,0,0,1.83718,-5.954,-523.12)">
      <stop
         stop-color="#000200"
         stop-opacity=".01"
         offset="0"
         id="stop27" />
      <stop
         stop-color="#333"
         offset="1"
         id="stop29" />
    </linearGradient>
    <radialGradient
       id="b"
       cx="6.35"
       cy="290.65"
       r="5.36"
       gradientTransform="matrix(1 0 0 1.1704 0 -49.52)"
       gradientUnits="userSpaceOnUse">
      <stop
         stop-color="#374837"
         offset="0"
         id="stop32" />
      <stop
         stop-color="#dbe3de"
         offset="1"
         id="stop34" />
    </radialGradient>
    <linearGradient
       xlink:href="#c"
       id="e"
       gradientUnits="userSpaceOnUse"
       gradientTransform="matrix(0.38342,0,0,0.57065,-2.856,-9.26)"
       x1="24.82"
       y1="15.38"
       x2="25"
       y2="37.28" />
    <linearGradient
       id="d"
       x1="26"
       x2="26"
       y1="22"
       y2="8"
       gradientTransform="matrix(2.0937 0 0 3.47518 33.763 -28.064)"
       gradientUnits="userSpaceOnUse">
      <stop
         stop-color="#fff"
         offset="0"
         id="stop38" />
      <stop
         stop-color="#fff"
         offset=".72"
         id="stop40" />
      <stop
         stop-color="#fff"
         stop-opacity=".69"
         offset=".79"
         id="stop42" />
      <stop
         stop-color="#fff"
         stop-opacity="0"
         offset="1"
         id="stop44" />
    </linearGradient>
    <linearGradient
       xlink:href="#d"
       id="h"
       gradientUnits="userSpaceOnUse"
       gradientTransform="matrix(0.55396,0,0,0.91947,-6.942,-7.425)"
       x1="26"
       y1="22"
       x2="26"
       y2="8" />
    <linearGradient
       inkscape:collect="always"
       xlink:href="#d"
       id="linearGradient874"
       gradientUnits="userSpaceOnUse"
       gradientTransform="matrix(0.55395115,0,0,0.91946312,8.9330146,-7.4251731)"
       x1="26"
       y1="22"
       x2="26"
       y2="8" />
  </defs>
  <path
     d="m 23.334104,12.070404 c -0.1098,0.08678 -0.237063,0.224099 -0.339456,0.286805 -0.277544,0.170125 -0.529954,0.252674 -0.769928,0.252674 -0.239974,0 -0.492383,-0.08255 -0.769927,-0.252674 -0.102393,-0.06271 -0.229656,-0.200023 -0.339457,-0.286805 v 0.711985 h 2.218768 v -0.71172 z M 21.115336,-0.08281354 V 0.2090182 c 0.367237,-0.0423328 0.698756,-0.119061 1.109384,-0.119061 a 6.749965,6.749965 0 0 1 0.470159,-0.0071437 6.749965,6.749965 0 0 1 0.639225,0.04444944 v -0.20954736 h -2.218768 z"
     id="path50"
     style="opacity:0.4;fill:url(#linearGradient874);stroke-width:0.26458001"
     inkscape:connector-curvature="0" />
  <path
     d="M 6.82,0.093 A 6.75,6.75 0 0 0 6.35,0.1 C 5.58,0.1 4.885,0.175 4.269,0.322 A 5.935,5.935 0 0 0 3.404,0.598 C 3.136,0.708 2.887,0.835 2.66,0.98 A 3.67,3.67 0 0 0 2.363,1.196 3.67,3.67 0 0 0 2.089,1.44 3.67,3.67 0 0 0 1.841,1.71 3.67,3.67 0 0 0 1.621,2.003 3.67,3.67 0 0 0 1.432,2.318 3.67,3.67 0 0 0 1.275,2.649 3.67,3.67 0 0 0 1.152,2.995 3.67,3.67 0 0 0 1.063,3.351 3.67,3.67 0 0 0 1.011,3.714 3.67,3.67 0 0 0 0.996,4.08 3.67,3.67 0 0 0 1,4.23 c 0,0.478 0.096,0.995 0.248,1.515 0.152,0.52 0.359,1.042 0.58,1.527 0.445,0.97 0.947,1.793 1.182,2.158 0.54,0.85 1.13,1.61 1.65,2.16 0.34,0.35 0.642,0.608 0.92,0.778 0.277,0.17 0.53,0.252 0.77,0.252 0.24,0 0.492,-0.082 0.77,-0.252 C 7.397,12.198 7.7,11.94 8.04,11.59 8.56,11.04 9.15,10.28 9.69,9.43 9.925,9.065 10.425,8.242 10.866,7.272 11.086,6.787 11.293,6.265 11.444,5.745 11.594,5.225 11.69,4.708 11.69,4.23 A 4.65,4.65 0 0 0 11.584,3.222 3.752,3.752 0 0 0 11.27,2.335 3.416,3.416 0 0 0 10.753,1.583 3.6,3.6 0 0 0 10.04,0.98 6.75,6.75 0 0 0 9.438,0.675 6.75,6.75 0 0 0 8.808,0.431 6.75,6.75 0 0 0 8.158,0.253 6.75,6.75 0 0 0 7.493,0.139 6.75,6.75 0 0 0 6.82,0.093 Z"
     display="block"
     id="path52"
     style="display:block;fill:url(#e)"
     inkscape:connector-curvature="0" />
  <path
     d="M 2.97,4.544 H 9.68"
     id="path54"
     style="opacity:0.4;fill:none;stroke:url(#f);stroke-width:0.16;stroke-linecap:square"
     inkscape:connector-curvature="0" />
  <path
     d="M 11.628,9.128 9.35,12.545 7.07,9.11 H 8.062 V 6.446 h 2.573 v 2.682 z"
     id="path56"
     inkscape:connector-curvature="0"
     style="fill:#5fd38d" />
  <path
     d="M 11.628,9.128 9.35,12.545 7.07,9.128 H 8.062 V 6.446 h 2.573 v 2.682 z"
     id="path58"
     style="opacity:0.5;fill:url(#g)"
     inkscape:connector-curvature="0" />
  <path
     d="M 7.46,0.127 A 6.75,6.75 0 0 0 6.82,0.083 6.75,6.75 0 0 0 6.35,0.09 C 5.94,0.09 5.608,0.167 5.24,0.209 V 12.07 c 0.11,0.086 0.238,0.224 0.34,0.286 0.278,0.17 0.53,0.253 0.77,0.253 0.24,0 0.492,-0.083 0.77,-0.253 0.102,-0.062 0.23,-0.2 0.34,-0.286 z"
     id="path60"
     style="opacity:0.4;fill:url(#h)"
     inkscape:connector-curvature="0" />
</svg>

<?xml version="1.0" encoding="UTF-8" standalone="no"?><svg xmlns:dc="http://purl.org/dc/elements/1.1/" xmlns:cc="http://creativecommons.org/ns#" xmlns:rdf="http://www.w3.org/1999/02/22-rdf-syntax-ns#" xmlns="http://www.w3.org/2000/svg" xmlns:xlink="http://www.w3.org/1999/xlink" width="48" height="48" viewBox="0 0 12.7 12.7"><metadata><rdf:RDF><cc:Work><dc:format>image/svg+xml</dc:format><dc:type rdf:resource="http://purl.org/dc/dcmitype/StillImage"/><dc:title/></cc:Work></rdf:RDF></metadata><defs><linearGradient id="f" x1="44.99" x2="3.01" y1="17.5" y2="17.5" gradientTransform="translate(2.4 1.674) scale(.16377)" gradientUnits="userSpaceOnUse" spreadMethod="reflect"><stop stop-color="#fff" stop-opacity="0" offset="0"/><stop stop-color="#fff" offset=".24"/><stop stop-color="#fff" offset=".77"/><stop stop-color="#fff" stop-opacity="0" offset="1"/></linearGradient><linearGradient id="c" x1="24.82" x2="25" y1="15.38" y2="37.28" gradientTransform="matrix(1.44914 0 0 2.1568 -70.795 -34.997)" gradientUnits="userSpaceOnUse"><stop stop-color="#eacfb0" offset="0"/><stop stop-color="#b09b77" offset=".373"/><stop stop-color="#e3cfa5" offset=".422"/><stop stop-color="#997b53" offset="1"/></linearGradient><radialGradient id="a" cx="6.35" cy="290.65" r="5.36" gradientTransform="matrix(1 0 0 1.1704 0 -49.52)" gradientUnits="userSpaceOnUse"><stop stop-color="#374837" offset="0"/><stop stop-color="#dbe3de" offset="1"/></radialGradient><linearGradient id="g" x1="7.09" x2="9.57" y1="289.91" y2="289.91" gradientUnits="userSpaceOnUse" gradientTransform="matrix(1.83718 0 0 1.83718 -5.954 -523.12)"><stop stop-color="#000200" stop-opacity=".01" offset="0"/><stop stop-color="#333" offset="1"/></linearGradient><radialGradient id="b" cx="6.35" cy="290.65" r="5.36" gradientTransform="matrix(1 0 0 1.1704 0 -49.52)" gradientUnits="userSpaceOnUse"><stop stop-color="#374837" offset="0"/><stop stop-color="#dbe3de" offset="1"/></radialGradient><linearGradient xlink:href="#c" id="e" gradientUnits="userSpaceOnUse" gradientTransform="matrix(.38342 0 0 .57065 -2.856 -9.26)" x1="24.82" y1="15.38" x2="25" y2="37.28"/><linearGradient id="d" x1="26" x2="26" y1="22" y2="8" gradientTransform="matrix(2.0937 0 0 3.47518 33.763 -28.064)" gradientUnits="userSpaceOnUse"><stop stop-color="#fff" offset="0"/><stop stop-color="#fff" offset=".72"/><stop stop-color="#fff" stop-opacity=".69" offset=".79"/><stop stop-color="#fff" stop-opacity="0" offset="1"/></linearGradient><linearGradient xlink:href="#d" id="h" gradientUnits="userSpaceOnUse" gradientTransform="matrix(.55396 0 0 .91947 -6.942 -7.425)" x1="26" y1="22" x2="26" y2="8"/></defs><path d="M88.193 45.621c-.415.328-.896.847-1.283 1.084-1.049.643-2.003.955-2.91.955s-1.861-.312-2.91-.955c-.387-.237-.868-.756-1.283-1.084v2.691h8.386v-2.69zM79.807-.313V.79C81.195.63 82.448.34 84 .34a25.512 25.512 0 0 1 1.777-.027 25.512 25.512 0 0 1 2.416.168v-.792h-8.386z" transform="scale(.26458)" opacity=".4" fill="url(#d)"/><path d="M6.82.093A6.75 6.75 0 0 0 6.35.1c-.77 0-1.465.075-2.081.222a5.935 5.935 0 0 0-.865.276c-.268.11-.517.237-.744.382a3.67 3.67 0 0 0-.297.216 3.67 3.67 0 0 0-.274.244 3.67 3.67 0 0 0-.248.27 3.67 3.67 0 0 0-.22.293 3.67 3.67 0 0 0-.189.315 3.67 3.67 0 0 0-.157.331 3.67 3.67 0 0 0-.123.346 3.67 3.67 0 0 0-.089.356 3.67 3.67 0 0 0-.052.363 3.67 3.67 0 0 0-.015.366A3.67 3.67 0 0 0 1 4.23c0 .478.096.995.248 1.515.152.52.359 1.042.58 1.527.445.97.947 1.793 1.182 2.158.54.85 1.13 1.61 1.65 2.16.34.35.642.608.92.778.277.17.53.252.77.252s.492-.082.77-.252c.277-.17.58-.428.92-.778.52-.55 1.11-1.31 1.65-2.16.235-.365.735-1.188 1.176-2.158.22-.485.427-1.007.578-1.527.15-.52.246-1.037.246-1.515a4.65 4.65 0 0 0-.106-1.008 3.752 3.752 0 0 0-.314-.887 3.416 3.416 0 0 0-.517-.752A3.6 3.6 0 0 0 10.04.98a6.75 6.75 0 0 0-.602-.305 6.75 6.75 0 0 0-.63-.244 6.75 6.75 0 0 0-.65-.178 6.75 6.75 0 0 0-.665-.114A6.75 6.75 0 0 0 6.82.093z" display="block" fill="url(#e)"/><path d="M2.97 4.544h6.71" opacity=".4" fill="none" stroke="url(#f)" stroke-width=".16" stroke-linecap="square"/><path d="M11.628 9.128L9.35 12.545 7.07 9.11h.992V6.446h2.573v2.682z" fill="#5fd38d"/><path d="M11.628 9.128L9.35 12.545 7.07 9.128h.992V6.446h2.573v2.682z" opacity=".5" fill="url(#g)"/><path d="M7.46.127a6.75 6.75 0 0 0-.64-.044 6.75 6.75 0 0 0-.47.007c-.41 0-.742.077-1.11.119V12.07c.11.086.238.224.34.286.278.17.53.253.77.253s.492-.083.77-.253c.102-.062.23-.2.34-.286z" opacity=".4" fill="url(#h)"/></svg>
